X: 17
T: Praeludia organi op. 5 – Allegretto
C: Franciszek Walczyński
%%abc-version 2.0
%%abcx-abcm2ps-target-version 5.9.1 (29 Sep 2008)
%%abc-creator hum2abc beta
%%abcx-conversion-date 2021/10/04 07:38:40
%%abc-edited-by Andrzej Borzym
%%abc-edited-by Krzysztof Stępień
%%abcx-initial-encoding-date 2021-07-26
%%humdrum-veritas 2985247655
%%humdrum-veritas-data 2478131468
%%linebreak <none>
%%barnumbers 0
L: 1/8
M: 3/4
N: Derived from pl-kozmzk--mzk-m-159--006_walczynski-franciszek--praeludia-organi-op-5-allegretto.krn
Q: "6. Allegretto."
%%staves {1 2}
V: 1 clef=treble
V: 2 clef=bass
K: D
[V:1] FEGFBA & z6 | 
[V:2] z6 & DCB,A,G,F, | 
[V:1] ^G2>d2cB & z2zG3 | 
[V:2] z2z B,ED & E,6 | 
[V:1] A2>e2Bc & =G6 | 
[V:2] C4DE & A,6- | 
[V:1] dcBAGF & AGFED2 | 
[V:2] FEDCB,A, & A,6 | 
[V:1] FE2<!accent!A2G & C2D3E | 
[V:2] A,2-A,3B, & A,G,2<F,2G, | 
[V:1] F2E4 & D4C2 | 
[V:2] A,4G,2 & A,2A,,4 | 
[V:1] D2!tenuto!E2!tenuto!^E2 & B,4DC/B,/ | 
[V:2] F,2G,2B,2 & B,,2G,,4 | 
[V:1] !fermata!F6 & C6 | 
[V:2] ^A,6 & !fermata!F,,6 | 
[V:1] z6 & z6 | 
[V:2] C2>E2DB, & z6 | 
[V:1] z6 & z6 | 
[V:2] !accent!^A,6 & z G,F,E,D,C, | 
[V:1] z6 & z6 | 
[V:2] B,CD2B,2- & D,C,B,,2D,2 | 
[V:1] z6 & F2>A2GE | 
[V:2] B,2F,2G,B, & ^D,4E,G, | 
[V:1] z6 & ^D6 | 
[V:2] A,^G,A,=CB,A, & F,2>A,2G,F, | 
[V:1] z6 & EFG2E2 | 
[V:2] B,6- & G,^D,E,2G,2 | 
[V:1] c2>e2dB & F6- | 
[V:2] B,2^A,2B,D & F,6- | 
[V:1] ^A6 & F2>G2FE | 
[V:2] C^B,CEDC & F,6 | 
[V:1] Bcd2B2 & F6 | 
[V:2] B,^A,B,4 & D,^C,B,,2D,2 | 
[V:1] edcBAG & GFEDFE | 
[V:2] B,2^A,B, =CB, & E,F,G,2^D,E, | 
[V:1] F2E4 & ED2<D2C | 
[V:2] A,4G,2- & A,2A,,4 | 
[V:1] !fermata!D6 & A,6 | 
[V:2] G,2F,E,F,2 & !fermata!D,6 | 
[V:1] E2>A2EF & =C6 | 
[V:2] F,4G,A, & D,6- | 
[V:1] G6- & D6 | 
[V:2] B,6 & D,6 | 
[V:1] G2>d2DE & D6- | 
[V:2] _B,6 & D,6- | 
[V:1] F6 & D6 | 
[V:2] A,6 & D,6 | 
[V:1] E2>A2EF & D6- | 
[V:2] [D,6-=C6] & D,,6- | 
[V:1] G6 & D6 | 
[V:2] [D,6B,6] & D,,6 | 
[V:1] d2>e2de & G6 | 
[V:2] [D,6-_B,6] & D,,6- | 
[V:1] f6- & F6- | 
[V:2] [D,6A,6]- & D,,6- | 
[V:1] f2z2z2 & F2x2x2 |]  
[V:2] [D,2A,2]z2z2 & D,,2x2x2 |]  


